app/public/icons/iconHome.svg

<svg width="46" height="46" viewBox="0 0 46 47" fill="none" xmlns="http://www.w3.org/2000/svg">
<path d="M22.5 18.041C22.625 17.916 22.8125 17.8535 23 17.8535C23.125 17.8535 23.3125 17.916 23.4375 18.041L35 27.4785V37.7285C35 38.291 34.5 38.7285 34 38.7285H26.9375C26.4375 38.7285 25.9375 38.291 25.9375 37.7285V31.7285C25.9375 31.2285 25.5 30.7285 24.9375 30.7285H20.9375C20.4375 30.7285 19.9375 31.2285 19.9375 31.7285V37.7285C19.9375 38.291 19.5 38.7285 19 38.7285H12C11.4375 38.7285 11 38.291 11 37.7285V27.541L22.5 18.041ZM40.6875 24.4785C40.875 24.6035 41 24.8535 41 25.041C41 25.2285 40.9375 25.416 40.8125 25.541L39.1875 27.4785C39.0625 27.666 38.875 27.7285 38.625 27.7285C38.4375 27.7285 38.25 27.666 38.125 27.541L23.4375 15.4785C23.3125 15.3535 23.125 15.291 23 15.291C22.8125 15.291 22.625 15.3535 22.5 15.4785L7.8125 27.541C7.6875 27.666 7.5 27.7285 7.3125 27.7285C7.0625 27.7285 6.875 27.666 6.75 27.4785L5.125 25.541C5.0625 25.416 4.9375 25.2285 4.9375 25.041C4.9375 24.8535 5.0625 24.6035 5.25 24.4785L21.0625 11.416C21.5625 11.041 22.25 10.791 23 10.791C23.6875 10.791 24.375 11.041 24.875 11.416L30.5 16.041V11.541C30.5 11.1035 30.8125 10.791 31.25 10.791H34.75C35.125 10.791 35.5 11.1035 35.5 11.541V20.166L40.6875 24.4785Z" fill="white"/>
</svg>

<svg xmlns="http://www.w3.org/2000/svg" width="46" height="46" fill="none" viewBox="0 0 46 47"><path fill="#fff" d="M22.5 18.041a.7.7 0 0 1 .5-.187c.125 0 .313.062.438.187L35 27.479v10.25c0 .562-.5 1-1 1h-7.062c-.5 0-1-.438-1-1v-6c0-.5-.438-1-1-1h-4c-.5 0-1 .5-1 1v6c0 .562-.438 1-.938 1h-7c-.562 0-1-.438-1-1V27.54zm18.188 6.438a.75.75 0 0 1 .312.562.7.7 0 0 1-.187.5l-1.626 1.938c-.124.187-.312.25-.562.25a.7.7 0 0 1-.5-.188L23.438 15.479A.68.68 0 0 0 23 15.29a.7.7 0 0 0-.5.188L7.813 27.54a.7.7 0 0 1-.5.188c-.25 0-.438-.063-.563-.25L5.125 25.54c-.062-.125-.187-.312-.187-.5 0-.187.125-.437.312-.562l15.813-13.063A3.26 3.26 0 0 1 23 10.791c.688 0 1.375.25 1.875.625l5.625 4.625v-4.5c0-.437.313-.75.75-.75h3.5a.76.76 0 0 1 .75.75v8.625z"/></svg>
